X:1
T:Mr. J.S. Skinner's  (Teacher of dancing, Banchory)
T:Mr. J.S. Skinner's  (Teacher of dancing, Banchory)
T:Alexander Walker
C:Alexander Walker
L:1/8
M:4/4
K:G
V:1 treble 
V:1
 D | G>AG<E D<G, B,2 | D<G,B,<G, E<A,C<E | G>AG<E D<G, B,2 | (^C<E)A>G F<DE<F | %5
 G>B A/G/F/E/ D<G, B,2 | D<G, E/D/C/B,/ E<A, C<E | G<BF<A E<GD>B, | C>EC>c B<G G || e | %10
 d<Bg>c{ef} e>de<g | d>B (c/B/).A/.G/ F<AA<e | d<Bg>B d<gB<g |{f} d<ba>f g2 g>e | d<gB<g c<aB<g | %15
 d>B (c/B/).A/.G/ AFDC | B<gB>G (c/B/).A/.G/ F<d | B<G{B}A>F (G2 G) || %18

